X: 4
T: The Sunset
R: reel
M: 4/4
L: 1/8
K: Dmaj
"f#"cded dFF2|"b"Bcdc BGBd|"D"deed "C"=cdeg|"G"d2Ad "b"dfed|
"f#"cded dFF2|"b"Bcdc BGBd|"D"deed "C"=cdeg|"D"fd"C"ec "b"dfec:|
"f#"d2 ag fdfg|gagf "C"e=cef|g3a fggf|gfec "b"dfed|
"f#"cded dFF2|"b"Bcdc BGBd|"D"deed "C"=cdeg|"D"fd"C"ec "b"dfec|
"F"d2 ag =f=cfg|gag=f e=cef|"Dsus4"g3a fggf|gfec dfed|
"f#"cded dFF2|"b"Bcdc BGBd|"D"deed "C"=cdeg|"D"fd"C"ec "b"dfec:|


Tune 908	Setting 14091

